frontend/public/icons/edit-pencil.svg

<svg width="24" height="24" viewBox="0 0 24 24" fill="none" xmlns="http://www.w3.org/2000/svg">
<path d="M14.3632 5.65156L15.8431 4.17157C16.6242 3.39052 17.8905 3.39052 18.6716 4.17157L20.0858 5.58579C20.8668 6.36683 20.8668 7.63316 20.0858 8.41421L18.6058 9.8942M14.3632 5.65156L4.74749 15.2672C4.41542 15.5993 4.21079 16.0376 4.16947 16.5054L3.92738 19.2459C3.87261 19.8659 4.39148 20.3848 5.0115 20.33L7.75191 20.0879C8.21972 20.0466 8.65806 19.8419 8.99013 19.5099L18.6058 9.8942M14.3632 5.65156L18.6058 9.8942" stroke="black" stroke-width="1.5" stroke-linecap="round" stroke-linejoin="round"/>
</svg>

<svg xmlns="http://www.w3.org/2000/svg" width="24" height="24" fill="none" viewBox="0 0 24 24">
  <path stroke="#131927" stroke-linecap="round" stroke-linejoin="round" stroke-width="1.5" d="m14.363 5.652 1.48-1.48a2 2 0 0 1 2.829 0l1.414 1.414a2 2 0 0 1 0 2.828l-1.48 1.48m-4.243-4.242-9.616 9.615a2 2 0 0 0-.578 1.238l-.242 2.74a1 1 0 0 0 1.084 1.085l2.74-.242a2 2 0 0 0 1.24-.578l9.615-9.616m-4.243-4.242 4.243 4.242"/>
</svg>
